X:5
T:A Bruxa
S:Leeds Session
R:Waltz
O:Spain
M:3/4
A:Galicia
K:Am
ec BA Bc | e2c2 Ad | cB F2c2 | B6 |\
ec BA Bc | e2c2 Ad | cB F2B2 | A6 :|*
AB c2d2 | e6 | fe d2g2 | e6 | \
AB c2d2 | e6 | fe d2g2 | e6  \
|:gf ed ef | e2c2A2 |*
ed cB cd | c2A2F2 |\
dc BA Bc | B2F2E2 | FE F2^G2 |1A2c2e2:|2A6||**
